svg/notebook_heart.svg

<svg xmlns="http://www.w3.org/2000/svg" id="mdi-notebook-heart" viewBox="0 0 24 24"><path d="M19 23.3L18.4 22.8C16.4 20.9 15 19.7 15 18.2C15 17 16 16 17.2 16C17.9 16 18.6 16.3 19 16.8C19.4 16.3 20.1 16 20.8 16C22 16 23 16.9 23 18.2C23 19.7 21.6 20.9 19.6 22.8L19 23.3M3 7V5H5V4C5 2.89 5.9 2 7 2H13V9L15.5 7.5L18 9V2H19C20.05 2 21 2.95 21 4V13.34C20.37 13.12 19.7 13 19 13C15.69 13 13 15.69 13 19C13 20.09 13.29 21.12 13.8 22H7C5.95 22 5 21.05 5 20V19H3V17H5V13H3V11H5V7H3M5 5V7H7V5H5M5 19H7V17H5V19M5 13H7V11H5V13Z" /></svg>

<svg xmlns="http://www.w3.org/2000/svg" viewBox="0 0 24 24"><path d="m19 23.3-.6-.5c-2-1.9-3.4-3.1-3.4-4.6 0-1.2 1-2.2 2.2-2.2.7 0 1.4.3 1.8.8.4-.5 1.1-.8 1.8-.8 1.2 0 2.2.9 2.2 2.2 0 1.5-1.4 2.7-3.4 4.6zM3 7V5h2V4a2 2 0 0 1 2-2h6v7l2.5-1.5L18 9V2h1c1.05 0 2 .95 2 2v9.34A6.005 6.005 0 0 0 13.8 22H7c-1.05 0-2-.95-2-2v-1H3v-2h2v-4H3v-2h2V7zm2-2v2h2V5zm0 14h2v-2H5zm0-6h2v-2H5z"/></svg>
